; generated by PrusaSlicer 2.3.0-rc2+win64 on 2020-12-25 at 11:05:57 UTC


;
;

;
;
; 

; external perimeters extrusion width = 0.45mm
; perimeters extrusion width = 0.45mm
; infill extrusion width = 0.45mm
; solid infill extrusion width = 0.45mm
; top infill extrusion width = 0.40mm
; first layer extrusion width = 0.42mm

M73 P0 R38
M201 X1250 Y1250 Z400 E5000 ; sets maximum accelerations, mm/sec^2
M203 X180 Y180 Z12 E80 ; sets maximum feedrates, mm/sec
M204 P1250 R1250 T1250 ; sets acceleration (P, T) and retract acceleration (R), mm/sec^2
M205 X8.00 Y8.00 Z2.00 E10.00 ; sets the jerk limits, mm/sec
M205 S0 T0 ; sets the minimum extruding and travel feed rate, mm/sec
M107
;TYPE:Custom
G90 ; use absolute coordinates
M83 ; extruder relative mode
M104 S170 ; set extruder temp for bed leveling
M140 S60 ; set bed temp
M109 R170 ; wait for bed leveling temp
M190 S60 ; wait for bed temp
G28 ; home all without mesh bed level
G29 ; mesh bed leveling 
M104 S215 ; set extruder temp
G92 E0.0
G1 Y-2.0 X179 F2400
G1 Z3 F720
M109 S215 ; wait for extruder temp

; intro line
G1 X170 F1000
G1 Z0.2 F720
G1 X110.0 E8.0 F900
G1 X40.0 E10.0 F700
G92 E0.0

M221 S95 ; set flow
G21 ; set units to millimeters
G90 ; use absolute coordinates
M83 ; use relative distances for extrusion
M900 K0.2 ; Filament gcode LA 1.5
; ; Filament gcode LA 1.0
;LAYER_CHANGE
;Z:0.2
;HEIGHT:0.2
;BEFORE_LAYER_CHANGE
G92 E0.0
;0.2


G1 Z0.200 F9000.000
;AFTER_LAYER_CHANGE
;0.2
G1 E-3.20000 F4200.000
G1 Z0.400 F9000.000
G1 X52.754 Y45.422
G1 Z0.200
G1 E3.20000 F2400.000
M204 S800
;TYPE:Skirt
;WIDTH:0.42
G1 F1200.000
G1 X53.125 Y44.739 E0.02437
G1 X53.497 Y44.359 E0.01669
G1 X53.944 Y44.070 E0.01668
G1 X54.444 Y43.889 E0.01668
G1 X54.968 Y43.823 E0.01657
G1 X125.004 Y43.823 E2.19591
G1 X125.902 Y44.001 E0.02872
G1 X126.664 Y44.503 E0.02860
G1 X127.182 Y45.258 E0.02872
G1 X127.377 Y46.153 E0.02872
G1 X127.377 Y133.811 E2.74846
M73 P1 R38
G1 X127.246 Y134.578 E0.02437
G1 X126.875 Y135.261 E0.02437
G1 X126.500 Y135.644 E0.01680
G1 X126.049 Y135.933 E0.01680
G1 X125.545 Y136.114 E0.01680
G1 X125.013 Y136.177 E0.01680
G1 X54.985 Y136.177 E2.19567
G1 X54.219 Y136.045 E0.02437
G1 X53.539 Y135.675 E0.02426
G1 X53.156 Y135.300 E0.01680
G1 X52.867 Y134.849 E0.01680
G1 X52.686 Y134.345 E0.01680
G1 X52.623 Y133.813 E0.01680
G1 X52.623 Y46.189 E2.74739
G1 X52.744 Y45.481 E0.02249
M204 S1250
G1 E-2.24000 F4200.000
;WIPE_START
G1 F7200.000
G1 X53.125 Y44.739 E-0.46237
G1 X53.497 Y44.359 E-0.29490
G1 X53.731 Y44.207 E-0.15473
;WIPE_END
G1 E-0.04800 F4200.000
G1 Z0.400 F9000.000
G1 X119.377 Y126.238
G1 Z0.200
G1 E3.20000 F2400.000
M204 S800
;TYPE:Perimeter
G1 F1200.000
G1 X119.815 Y125.985 E0.01586
G1 X120.295 Y125.824 E0.01586
G1 X120.797 Y125.761 E0.01586
G1 X121.301 Y125.799 E0.01586
G1 X121.788 Y125.936 E0.01586
G1 X122.237 Y126.166 E0.01584
G1 X122.617 Y126.467 E0.01521
G1 X122.888 Y126.772 E0.01276
G1 X123.149 Y127.198 E0.01567
G1 X123.322 Y127.673 E0.01586
G1 X123.397 Y128.173 E0.01586
G1 X123.372 Y128.679 E0.01586
G1 X123.247 Y129.169 E0.01586
G1 X123.027 Y129.624 E0.01586
G1 X122.722 Y130.028 E0.01586
G1 X122.343 Y130.362 E0.01586
G1 X121.905 Y130.615 E0.01586
G1 X121.425 Y130.776 E0.01586
G1 X120.923 Y130.839 E0.01586
G1 X120.419 Y130.801 E0.01586
G1 X119.932 Y130.664 E0.01586
G1 X119.482 Y130.434 E0.01586
G1 X119.086 Y130.118 E0.01586
G1 X118.761 Y129.731 E0.01586
G1 X118.519 Y129.287 E0.01586
G1 X118.370 Y128.803 E0.01586
G1 X118.321 Y128.307 E0.01563
G1 X118.350 Y127.914 E0.01236
G1 X118.473 Y127.431 E0.01563
G1 X118.693 Y126.976 E0.01586
G1 X118.998 Y126.572 E0.01586
G1 X119.332 Y126.277 E0.01398
M204 S1250
G1 X119.582 Y126.560 F9000.000
M204 S800
;TYPE:External perimeter
G1 F1200.000
G1 X119.971 Y126.330 E0.01418
G1 X120.379 Y126.193 E0.01349
G1 X120.806 Y126.140 E0.01349
G1 X121.235 Y126.172 E0.01349
G1 X121.650 Y126.288 E0.01349
G1 X122.032 Y126.484 E0.01349
G1 X122.357 Y126.742 E0.01301
G1 X122.584 Y126.997 E0.01068
G1 X122.807 Y127.362 E0.01342
G1 X122.954 Y127.767 E0.01349
G1 X123.018 Y128.192 E0.01349
G1 X122.997 Y128.622 E0.01349
G1 X122.891 Y129.039 E0.01349
G1 X122.704 Y129.427 E0.01349
G1 X122.444 Y129.770 E0.01349
G1 X122.122 Y130.055 E0.01349
G1 X121.749 Y130.270 E0.01349
G1 X121.341 Y130.407 E0.01349
G1 X120.914 Y130.460 E0.01349
G1 X120.485 Y130.428 E0.01349
G1 X120.070 Y130.312 E0.01349
G1 X119.687 Y130.115 E0.01349
G1 X119.351 Y129.847 E0.01349
G1 X119.074 Y129.517 E0.01349
G1 X118.869 Y129.139 E0.01349
G1 X118.742 Y128.728 E0.01349
G1 X118.699 Y128.303 E0.01341
G1 X118.724 Y127.975 E0.01029
G1 X118.829 Y127.561 E0.01341
G1 X119.016 Y127.173 E0.01349
G1 X119.276 Y126.830 E0.01349
G1 X119.537 Y126.600 E0.01091
M204 S1250
G1 X119.539 Y126.162 F9000.000
G1 E-2.24000 F4200.000
;WIPE_START
G1 F7200.000
G1 X119.971 Y126.330 E-0.28332
G1 X120.379 Y126.193 E-0.23848
G1 X120.806 Y126.140 E-0.23849
G1 X121.079 Y126.160 E-0.15171
;WIPE_END
G1 E-0.04800 F4200.000
G1 Z0.400 F9000.000
G1 X61.679 Y128.279
G1 Z0.200
G1 E3.20000 F2400.000
M204 S800
;TYPE:Perimeter
G1 F1200.000
G1 X61.650 Y128.685 E0.01276
G1 X61.527 Y129.169 E0.01567
G1 X61.307 Y129.624 E0.01586
G1 X61.002 Y130.028 E0.01586
G1 X60.623 Y130.362 E0.01586
G1 X60.185 Y130.615 E0.01586
G1 X59.705 Y130.776 E0.01586
G1 X59.203 Y130.839 E0.01586
G1 X58.700 Y130.802 E0.01584
G1 X58.232 Y130.671 E0.01521
G1 X57.865 Y130.496 E0.01276
G1 X57.459 Y130.204 E0.01567
G1 X57.115 Y129.834 E0.01586
G1 X56.851 Y129.402 E0.01586
G1 X56.678 Y128.927 E0.01586
G1 X56.603 Y128.427 E0.01586
G1 X56.628 Y127.921 E0.01586
G1 X56.753 Y127.431 E0.01586
G1 X56.973 Y126.976 E0.01586
G1 X57.278 Y126.572 E0.01586
G1 X57.657 Y126.238 E0.01586
G1 X58.095 Y125.985 E0.01586
G1 X58.575 Y125.824 E0.01586
G1 X59.077 Y125.761 E0.01586
G1 X59.581 Y125.799 E0.01586
G1 X60.068 Y125.936 E0.01586
G1 X60.518 Y126.166 E0.01586
G1 X60.914 Y126.482 E0.01586
G1 X61.239 Y126.869 E0.01586
G1 X61.481 Y127.313 E0.01586
G1 X61.629 Y127.796 E0.01584
G1 X61.673 Y128.219 E0.01333
M204 S1250
G1 X61.258 Y127.872 F9000.000
M204 S800
;TYPE:External perimeter
G1 F1200.000
G1 X61.301 Y128.284 E0.01301
G1 X61.276 Y128.624 E0.01068
G1 X61.171 Y129.039 E0.01342
G1 X60.984 Y129.427 E0.01349
G1 X60.724 Y129.770 E0.01349
G1 X60.402 Y130.055 E0.01349
G1 X60.029 Y130.270 E0.01349
G1 X59.621 Y130.407 E0.01349
G1 X59.194 Y130.460 E0.01349
G1 X58.765 Y130.428 E0.01349
G1 X58.365 Y130.317 E0.01301
G1 X58.058 Y130.170 E0.01068
G1 X57.710 Y129.920 E0.01342
G1 X57.417 Y129.605 E0.01349
G1 X57.193 Y129.238 E0.01349
G1 X57.046 Y128.833 E0.01349
G1 X56.982 Y128.408 E0.01349
G1 X57.003 Y127.978 E0.01349
G1 X57.109 Y127.561 E0.01349
G1 X57.296 Y127.173 E0.01349
G1 X57.556 Y126.830 E0.01349
G1 X57.878 Y126.545 E0.01349
G1 X58.251 Y126.330 E0.01349
G1 X58.659 Y126.193 E0.01349
G1 X59.086 Y126.140 E0.01349
G1 X59.515 Y126.172 E0.01349
G1 X59.930 Y126.288 E0.01349
G1 X60.313 Y126.485 E0.01349
G1 X60.649 Y126.753 E0.01349
G1 X60.926 Y127.083 E0.01349
G1 X61.131 Y127.461 E0.01349
G1 X61.240 Y127.814 E0.01160
M204 S1250
G1 X61.638 Y127.998 F9000.000
G1 E-2.24000 F4200.000
;WIPE_START
G1 F7200.000
G1 X61.301 Y128.284 E-0.26270
G1 X61.276 Y128.624 E-0.18878
G1 X61.171 Y129.039 E-0.23726
G1 X60.996 Y129.402 E-0.22326
;WIPE_END
G1 E-0.04800 F4200.000
G1 Z0.400 F9000.000
G1 X59.203 Y54.239
G1 Z0.200
G1 E3.20000 F2400.000
M204 S800
;TYPE:Perimeter
G1 F1200.000
G1 X58.699 Y54.201 E0.01586
G1 X58.212 Y54.064 E0.01586
G1 X57.763 Y53.834 E0.01584
G1 X57.383 Y53.533 E0.01521
G1 X57.112 Y53.228 E0.01276
G1 X56.851 Y52.802 E0.01567
G1 X56.678 Y52.327 E0.01586
G1 X56.603 Y51.827 E0.01586
G1 X56.628 Y51.321 E0.01586
G1 X56.753 Y50.831 E0.01586
G1 X56.973 Y50.376 E0.01586
G1 X57.278 Y49.972 E0.01586
G1 X57.657 Y49.638 E0.01586
G1 X58.095 Y49.385 E0.01586
G1 X58.575 Y49.224 E0.01586
G1 X59.077 Y49.161 E0.01586
G1 X59.581 Y49.199 E0.01586
G1 X60.068 Y49.336 E0.01586
G1 X60.518 Y49.566 E0.01586
G1 X60.914 Y49.882 E0.01586
G1 X61.239 Y50.269 E0.01586
G1 X61.481 Y50.713 E0.01586
G1 X61.629 Y51.196 E0.01584
G1 X61.679 Y51.678 E0.01521
G1 X61.650 Y52.085 E0.01276
G1 X61.527 Y52.569 E0.01567
G1 X61.307 Y53.024 E0.01586
G1 X61.002 Y53.428 E0.01586
G1 X60.623 Y53.762 E0.01586
G1 X60.185 Y54.015 E0.01586
G1 X59.705 Y54.176 E0.01586
G1 X59.263 Y54.232 E0.01398
M204 S1250
G1 X59.216 Y53.858 F9000.000
M204 S800
;TYPE:External perimeter
G1 F1200.000
G1 X58.765 Y53.828 E0.01418
G1 X58.350 Y53.712 E0.01349
G1 X57.968 Y53.516 E0.01349
G1 X57.643 Y53.258 E0.01301
G1 X57.416 Y53.003 E0.01068
G1 X57.193 Y52.638 E0.01342
G1 X57.046 Y52.233 E0.01349
G1 X56.982 Y51.808 E0.01349
G1 X57.003 Y51.378 E0.01349
G1 X57.109 Y50.961 E0.01349
G1 X57.296 Y50.573 E0.01349
G1 X57.556 Y50.230 E0.01349
G1 X57.878 Y49.945 E0.01349
G1 X58.251 Y49.730 E0.01349
G1 X58.659 Y49.593 E0.01349
G1 X59.086 Y49.540 E0.01349
G1 X59.515 Y49.572 E0.01349
G1 X59.930 Y49.688 E0.01349
G1 X60.313 Y49.885 E0.01349
G1 X60.649 Y50.153 E0.01349
G1 X60.926 Y50.483 E0.01349
G1 X61.131 Y50.861 E0.01349
G1 X61.258 Y51.272 E0.01349
G1 X61.301 Y51.684 E0.01301
G1 X61.276 Y52.024 E0.01068
G1 X61.171 Y52.439 E0.01342
G1 X60.984 Y52.827 E0.01349
G1 X60.724 Y53.170 E0.01349
G1 X60.402 Y53.455 E0.01349
G1 X60.029 Y53.670 E0.01349
G1 X59.621 Y53.807 E0.01349
G1 X59.276 Y53.850 E0.01091
M204 S1250
G1 X59.027 Y54.210 F9000.000
G1 E-2.24000 F4200.000
;WIPE_START
G1 F7200.000
G1 X58.765 Y53.828 E-0.28332
G1 X58.350 Y53.712 E-0.23849
G1 X57.968 Y53.516 E-0.23834
G1 X57.753 Y53.345 E-0.15185
;WIPE_END
G1 E-0.04800 F4200.000
G1 Z0.400 F9000.000
G1 X118.321 Y51.707
G1 Z0.200
G1 E3.20000 F2400.000
M204 S800
;TYPE:Perimeter
G1 F1200.000
G1 X118.350 Y51.314 E0.01236
G1 X118.473 Y50.831 E0.01563
G1 X118.693 Y50.376 E0.01586
G1 X118.998 Y49.972 E0.01586
G1 X119.377 Y49.638 E0.01586
G1 X119.815 Y49.385 E0.01586
G1 X120.295 Y49.224 E0.01586
G1 X120.797 Y49.161 E0.01586
G1 X121.301 Y49.199 E0.01586
G1 X121.788 Y49.336 E0.01586
G1 X122.237 Y49.566 E0.01584
G1 X122.617 Y49.867 E0.01521
G1 X122.888 Y50.172 E0.01276
G1 X123.149 Y50.598 E0.01567
G1 X123.322 Y51.073 E0.01586
G1 X123.397 Y51.573 E0.01586
G1 X123.372 Y52.079 E0.01586
G1 X123.247 Y52.569 E0.01586
G1 X123.027 Y53.024 E0.01586
G1 X122.722 Y53.428 E0.01586
G1 X122.343 Y53.762 E0.01586
G1 X121.905 Y54.015 E0.01586
G1 X121.425 Y54.176 E0.01586
G1 X120.923 Y54.239 E0.01586
G1 X120.419 Y54.201 E0.01586
G1 X119.932 Y54.064 E0.01586
G1 X119.482 Y53.834 E0.01586
G1 X119.086 Y53.518 E0.01586
G1 X118.761 Y53.131 E0.01586
G1 X118.519 Y52.687 E0.01586
G1 X118.370 Y52.203 E0.01586
G1 X118.327 Y51.767 E0.01375
M204 S1250
G1 X118.742 Y52.128 F9000.000
M204 S800
;TYPE:External perimeter
G1 F1200.000
G1 X118.699 Y51.703 E0.01341
G1 X118.724 Y51.375 E0.01029
G1 X118.829 Y50.961 E0.01341
G1 X119.016 Y50.573 E0.01349
G1 X119.276 Y50.230 E0.01349
G1 X119.598 Y49.945 E0.01349
G1 X119.971 Y49.730 E0.01349
G1 X120.379 Y49.593 E0.01349
G1 X120.806 Y49.540 E0.01349
G1 X121.235 Y49.572 E0.01349
G1 X121.650 Y49.688 E0.01349
G1 X122.032 Y49.884 E0.01349
G1 X122.357 Y50.142 E0.01301
G1 X122.584 Y50.397 E0.01068
G1 X122.807 Y50.762 E0.01342
G1 X122.954 Y51.167 E0.01349
G1 X123.018 Y51.592 E0.01349
G1 X122.997 Y52.022 E0.01349
G1 X122.891 Y52.439 E0.01349
G1 X122.704 Y52.827 E0.01349
G1 X122.444 Y53.170 E0.01349
G1 X122.122 Y53.455 E0.01349
G1 X121.749 Y53.670 E0.01349
G1 X121.341 Y53.807 E0.01349
G1 X120.914 Y53.860 E0.01349
G1 X120.485 Y53.828 E0.01349
G1 X120.070 Y53.712 E0.01349
G1 X119.688 Y53.515 E0.01349
G1 X119.351 Y53.247 E0.01349
G1 X119.074 Y52.917 E0.01349
G1 X118.869 Y52.539 E0.01349
G1 X118.759 Y52.186 E0.01161
M204 S1250
G1 X118.363 Y52.001 F9000.000
G1 E-2.24000 F4200.000
;WIPE_START
G1 F7200.000
G1 X118.699 Y51.703 E-0.26970
G1 X118.724 Y51.375 E-0.18188
G1 X118.829 Y50.961 E-0.23702
G1 X119.004 Y50.598 E-0.22340
;WIPE_END
G1 E-0.04800 F4200.000
G1 Z0.400 F9000.000
G1 X120.534 Y56.413
G1 Z0.200
G1 E3.20000 F2400.000
M204 S800
;TYPE:Perimeter
G1 F1200.000
G1 X93.213 Y83.734 E1.21146
M73 P1 R37
G1 X93.213 Y95.626 E0.37287
G1 X107.816 Y110.229 E0.64753
M73 P2 R37
G1 X120.073 Y110.229 E0.38430
G1 X120.073 Y123.587 E0.41883
G1 X124.213 Y123.587 E0.12981
G1 X124.213 Y133.013 E0.29554
G1 X117.326 Y133.013 E0.21593
G1 X90.000 Y105.687 E1.21168
G1 X62.674 Y133.013 E1.21168
G1 X55.787 Y133.013 E0.21593
G1 X55.787 Y123.587 E0.29554
G1 X59.927 Y123.587 E0.12981
G1 X59.927 Y110.229 E0.41883
G1 X72.184 Y110.229 E0.38430
G1 X86.787 Y95.626 E0.64753
G1 X86.787 Y83.734 E0.37287
G1 X59.466 Y56.413 E1.21146
G1 X55.787 Y56.413 E0.11535
G1 X55.787 Y46.987 E0.29554
G1 X62.674 Y46.987 E0.21593
G1 X90.000 Y74.313 E1.21168
G1 X117.326 Y46.987 E1.21168
G1 X124.213 Y46.987 E0.21593
G1 X124.213 Y56.413 E0.29554
G1 X120.594 Y56.413 E0.11347
M204 S1250
G1 X120.690 Y56.790 F9000.000
M204 S800
;TYPE:External perimeter
G1 F1200.000
G1 X93.590 Y83.890 E1.20167
G1 X93.590 Y95.470 E0.36307
G1 X107.972 Y109.852 E0.63774
G1 X120.450 Y109.852 E0.39123
G1 X120.450 Y123.210 E0.41883
M73 P3 R37
G1 X124.590 Y123.210 E0.12981
G1 X124.590 Y133.390 E0.31919
G1 X117.170 Y133.390 E0.23265
G1 X90.000 Y106.220 E1.20476
G1 X62.830 Y133.390 E1.20476
G1 X55.410 Y133.390 E0.23265
G1 X55.410 Y123.210 E0.31919
G1 X59.550 Y123.210 E0.12981
G1 X59.550 Y109.852 E0.41883
G1 X72.028 Y109.852 E0.39123
G1 X86.410 Y95.470 E0.63774
G1 X86.410 Y83.890 E0.36307
G1 X59.310 Y56.790 E1.20167
G1 X55.410 Y56.790 E0.12228
G1 X55.410 Y46.610 E0.31919
G1 X62.830 Y46.610 E0.23265
G1 X90.000 Y73.780 E1.20476
G1 X117.170 Y46.610 E1.20476
G1 X124.590 Y46.610 E0.23265
G1 X124.590 Y56.790 E0.31919
G1 X120.750 Y56.790 E0.12040
M204 S1250
G1 X120.293 Y56.741 F9000.000
G1 E-2.24000 F4200.000
;WIPE_START
G1 F7200.000
G1 X119.585 Y57.952 E-0.91200
;WIPE_END
G1 E-0.04800 F4200.000
G1 Z0.400 F9000.000
G1 X123.335 Y47.100
G1 Z0.200
G1 E3.20000 F2400.000
M204 S800
;TYPE:Solid infill
;WIDTH:0.421208
G1 F1200.000
G1 X123.930 Y47.695 E0.02647
G1 X123.930 Y48.230 E0.01683
G1 X122.970 Y47.270 E0.04272
G1 X122.435 Y47.270 E0.01683
G1 X123.930 Y48.765 E0.06652
G1 X123.930 Y49.300 E0.01683
G1 X121.900 Y47.270 E0.09032
G1 X121.365 Y47.270 E0.01683
G1 X123.930 Y49.835 E0.11412
G1 X123.930 Y50.370 E0.01683
G1 X120.830 Y47.270 E0.13792
G1 X120.295 Y47.270 E0.01683
G1 X124.100 Y51.075 E0.16926
M204 S1250
G1 X123.373 Y50.883 F9000.000
M204 S800
G1 F1200.000
G1 X123.930 Y51.440 E0.02480
G1 X123.930 Y51.975 E0.01683
G1 X123.673 Y51.718 E0.01144
G1 X123.653 Y52.121 E0.01269
G1 X123.630 Y52.210 E0.00289
G1 X123.930 Y52.510 E0.01335
G1 X123.930 Y53.045 E0.01683
G1 X123.521 Y52.636 E0.01818
G1 X123.352 Y53.002 E0.01267
G1 X123.930 Y53.580 E0.02571
G1 X123.930 Y54.115 E0.01683
G1 X123.148 Y53.333 E0.03478
G1 X122.915 Y53.635 E0.01199
G1 X123.930 Y54.650 E0.04517
G1 X123.930 Y55.185 E0.01683
G1 X122.631 Y53.886 E0.05781
G1 X122.509 Y53.993 E0.00512
G1 X122.315 Y54.105 E0.00703
G1 X123.930 Y55.720 E0.07185
G1 X123.930 Y56.130 E0.01290
G1 X123.805 Y56.130 E0.00393
G1 X121.968 Y54.292 E0.08174
G1 X121.567 Y54.427 E0.01329
G1 X123.270 Y56.130 E0.07576
G1 X122.735 Y56.130 E0.01683
G1 X121.106 Y54.501 E0.07245
G1 X120.930 Y54.523 E0.00558
G1 X120.566 Y54.496 E0.01149
G1 X122.370 Y56.300 E0.08023
M204 S1250
G1 E-2.24000 F4200.000
;WIPE_START
G1 F7200.000
G1 X121.206 Y55.136 E-0.91200
;WIPE_END
G1 E-0.04800 F4200.000
G1 Z0.400 F9000.000
G1 X121.677 Y49.187
G1 Z0.200
G1 E3.20000 F2400.000
M204 S800
G1 F1200.000
G1 X119.760 Y47.270 E0.08527
G1 X119.225 Y47.270 E0.01683
G1 X120.835 Y48.880 E0.07162
G1 X120.351 Y48.931 E0.01529
G1 X118.690 Y47.270 E0.07392
G1 X118.155 Y47.270 E0.01683
G1 X119.932 Y49.047 E0.07906
G1 X119.698 Y49.126 E0.00776
G1 X119.557 Y49.207 E0.00513
G1 X117.620 Y47.270 E0.08618
G1 X117.443 Y47.270 E0.00556
G1 X117.264 Y47.449 E0.00797
G1 X119.218 Y49.403 E0.08692
G1 X118.933 Y49.653 E0.01193
G1 X116.997 Y47.716 E0.08613
G1 X116.729 Y47.984 E0.01190
G1 X118.675 Y49.930 E0.08657
G1 X118.446 Y50.236 E0.01202
G1 X116.462 Y48.251 E0.08827
G1 X116.194 Y48.519 E0.01190
G1 X118.272 Y50.597 E0.09244
M73 P4 R37
G1 X118.206 Y50.734 E0.00479
G1 X118.139 Y50.999 E0.00859
G1 X115.927 Y48.786 E0.09840
G1 X115.659 Y49.054 E0.01190
